images/partners/superheroes-marketing-207-41.svg

<svg width="208" height="42" viewBox="0 0 208 42" fill="none" xmlns="http://www.w3.org/2000/svg">
<path d="M0 19.8012L2.86017 15.6216C4.53535 17.3837 6.8379 18.4125 9.267 18.4843C10.5541 18.4843 11.803 17.969 11.803 16.8335C11.803 16.0414 11.0689 15.5261 9.97248 15.0968C8.31501 14.5704 6.68572 13.9588 5.09113 13.2646C3.95737 12.768 2.99718 11.9445 2.3332 10.8991C1.66922 9.85381 1.33156 8.63416 1.36334 7.39589C1.36334 3.42618 4.8146 0.429815 9.7627 0.429815C12.6904 0.416616 15.5305 1.42942 17.7903 3.29258L15.1494 7.63445C13.6343 6.45601 11.7854 5.78794 9.86763 5.72595C8.21828 5.72595 7.45552 6.43207 7.45552 7.1955C7.45552 8.14973 8.40891 8.56961 9.24789 8.875C10.4492 9.33305 12.3083 9.94375 13.8337 10.5831C16.2077 11.5946 18.1335 13.2741 18.1335 16.509C18.1335 20.6314 14.7108 23.7232 9.19069 23.7232C7.46783 23.7641 5.7562 23.4352 4.17092 22.7587C2.58562 22.0822 1.1634 21.0738 0 19.8012Z" fill="#161616"/>
<path d="M20.4688 15.9566V6.41406H25.8268V15.9566C25.8049 16.3254 25.8586 16.6948 25.9845 17.042C26.1104 17.3893 26.306 17.7071 26.5591 17.976C26.8123 18.2448 27.1176 18.4591 27.4565 18.6055C27.7954 18.7519 28.1606 18.8275 28.5297 18.8275C28.8988 18.8275 29.264 18.7519 29.6028 18.6055C29.9417 18.4591 30.247 18.2448 30.5002 17.976C30.7533 17.7071 30.9489 17.3893 31.0748 17.042C31.2007 16.6948 31.2544 16.3254 31.2325 15.9566V6.41406H36.6383V15.9566C36.6383 20.9951 33.5206 23.7434 28.5154 23.7434C23.5101 23.7434 20.4688 20.9951 20.4688 15.9566Z" fill="#161616"/>
<path d="M58.2995 14.8587C58.2995 19.7445 54.8766 23.7429 50.0907 23.7429C48.3251 23.7694 46.6175 23.1131 45.3236 21.9107V30.2509H39.918V6.45169H45.238V8.00715C45.8712 7.36559 46.6275 6.85898 47.4613 6.51785C48.2955 6.17672 49.1897 6.00816 50.0907 6.02231C54.9054 6.02231 58.2995 9.96338 58.2995 14.8587ZM52.8077 14.916C52.8077 13.9037 52.4059 12.9328 51.6908 12.2169C50.9757 11.5011 50.0056 11.099 48.9943 11.099C47.9829 11.099 47.0128 11.5011 46.2977 12.2169C45.5826 12.9328 45.1809 13.9037 45.1809 14.916C45.1809 15.9283 45.5826 16.8992 46.2977 17.615C47.0128 18.3308 47.9829 18.733 48.9943 18.733C50.0056 18.733 50.9757 18.3308 51.6908 17.615C52.4059 16.8992 52.8077 15.9283 52.8077 14.916Z" fill="#161616"/>
<path d="M77.631 16.6245H65.5992C65.8914 17.4659 66.457 18.1852 67.2049 18.6678C67.9532 19.1503 68.8414 19.3682 69.7276 19.2869C71.5344 19.2426 73.2952 18.7047 74.8185 17.7314L76.9255 21.3672C74.7442 22.8945 72.142 23.7048 69.4798 23.686C63.1873 23.686 60.1649 19.5063 60.1649 14.8878C60.1254 13.6998 60.3324 12.5165 60.7729 11.4127C61.2138 10.309 61.8786 9.30886 62.7256 8.47555C63.5722 7.64227 64.5827 6.994 65.6928 6.5718C66.8028 6.14957 67.9884 5.96262 69.1744 6.0227C74.0275 6.0227 77.8125 9.11451 77.8125 14.4583C77.8097 15.184 77.7493 15.9084 77.631 16.6245ZM65.5421 12.922H72.6832C72.4861 12.1494 72.028 11.4689 71.3869 10.9958C70.7457 10.5227 69.9606 10.2862 69.1652 10.3264C68.3581 10.2916 67.5631 10.5283 66.9063 10.9988C66.2496 11.4693 65.7695 12.1463 65.5421 12.922Z" fill="#161616"/>
<path d="M80.4102 6.45038H85.5678V8.53068C86.0287 7.75105 86.6863 7.10621 87.4741 6.66075C88.2624 6.21526 89.1534 5.98477 90.0584 5.99237C90.7815 6.00052 91.4954 6.15638 92.1561 6.45038L91.7364 11.5843C91.0193 11.3314 90.2658 11.1961 89.5056 11.1835C87.3986 11.1835 85.7873 12.405 85.7873 16.0407V23.3121H80.4102V6.45038Z" fill="#161616"/>
<path d="M94.0234 0H99.2767V8.74099C99.8391 7.85964 100.623 7.14177 101.55 6.65938C102.477 6.17702 103.515 5.9471 104.559 5.99271C107.886 5.99271 111.051 8.22571 111.051 12.9588V23.3125H105.655V14.3902C105.655 12.1572 104.52 10.9072 102.69 10.9072C102.229 10.9037 101.773 10.9971 101.351 11.1813C100.929 11.3654 100.55 11.6363 100.239 11.9763C99.9282 12.3164 99.692 12.718 99.5457 13.1552C99.3998 13.5924 99.347 14.0554 99.391 14.5143V23.3125H94.0234V0Z" fill="#161616"/>
<path d="M130.963 16.6245H118.941C119.23 17.4661 119.793 18.1862 120.54 18.669C121.287 19.1518 122.174 19.3694 123.06 19.2869C124.866 19.2426 126.627 18.7047 128.151 17.7314L130.258 21.3672C128.076 22.8945 125.474 23.7048 122.812 23.686C116.519 23.686 113.497 19.5063 113.497 14.8878C113.457 13.6998 113.664 12.5165 114.105 11.4127C114.546 10.309 115.211 9.30886 116.057 8.47555C116.904 7.64227 117.915 6.994 119.025 6.5718C120.135 6.14957 121.32 5.96262 122.506 6.0227C127.359 6.0227 131.144 9.11451 131.144 14.4583C131.142 15.184 131.081 15.9084 130.963 16.6245ZM118.874 12.922H126.015C125.818 12.1511 125.362 11.4718 124.723 10.9989C124.083 10.526 123.301 10.2885 122.506 10.3264C121.699 10.2928 120.903 10.5298 120.245 10.9999C119.587 11.4701 119.105 12.1464 118.874 12.922Z" fill="#161616"/>
<path d="M133.742 6.45038H138.9V8.53068C139.361 7.75105 140.018 7.10621 140.806 6.66075C141.594 6.21526 142.485 5.98477 143.39 5.99237C144.117 6.00056 144.833 6.15638 145.497 6.45038L145.068 11.5843C144.351 11.3314 143.598 11.1961 142.838 11.1835C140.731 11.1835 139.119 12.405 139.119 16.0407V23.3121H133.742V6.45038Z" fill="#161616"/>
<path d="M146.164 14.8875C146.241 12.5028 147.241 10.2415 148.954 8.58182C150.667 6.92211 152.957 5.99414 155.341 5.99414C157.724 5.99414 160.015 6.92211 161.727 8.58182C163.439 10.2415 164.44 12.5028 164.517 14.8875C164.517 19.802 160.875 23.7717 155.326 23.7717C149.778 23.7717 146.164 19.802 146.164 14.8875ZM159.14 14.8875C159.128 14.1351 158.895 13.4028 158.469 12.7827C158.044 12.1626 157.444 11.6823 156.746 11.4021C156.049 11.122 155.284 11.0545 154.548 11.2082C153.812 11.3619 153.138 11.7299 152.61 12.2659C152.082 12.8019 151.725 13.4821 151.582 14.2209C151.44 14.9597 151.518 15.7243 151.809 16.4184C152.099 17.1126 152.588 17.7054 153.214 18.1223C153.84 18.5392 154.574 18.7617 155.326 18.7618C155.834 18.7619 156.337 18.6604 156.806 18.4632C157.274 18.2661 157.698 17.9772 158.054 17.6136C158.409 17.25 158.688 16.819 158.875 16.346C159.061 15.8729 159.151 15.3673 159.14 14.8589V14.8875Z" fill="#161616"/>
<path d="M183.837 16.6245H171.814C172.105 17.4652 172.668 18.1842 173.415 18.6668C174.161 19.1494 175.048 19.3677 175.933 19.2869C177.743 19.2438 179.507 18.7059 181.033 17.7314L183.141 21.3672C180.958 22.8928 178.356 23.703 175.695 23.686C169.402 23.686 166.38 19.5063 166.38 14.8878C166.34 13.6998 166.547 12.5165 166.988 11.4127C167.429 10.309 168.093 9.30886 168.94 8.47555C169.787 7.64227 170.798 6.994 171.908 6.5718C173.018 6.14957 174.204 5.96262 175.39 6.0227C180.242 6.0227 184.027 9.11451 184.027 14.4583C184.021 15.1843 183.957 15.9086 183.837 16.6245ZM171.748 12.922H178.898C178.701 12.1494 178.243 11.4689 177.602 10.9958C176.961 10.5227 176.175 10.2862 175.38 10.3264C174.572 10.2928 173.776 10.5298 173.118 10.9999C172.46 11.4701 171.978 12.1464 171.748 12.922Z" fill="#161616"/>
<path d="M185.332 20.8734L187.744 17.2377C189.125 18.5075 190.905 19.2536 192.778 19.3466C193.731 19.3466 194.58 19.0031 194.58 18.2683C194.58 17.9343 194.399 17.6289 193.627 17.314C192.855 16.9991 190.452 16.3025 189.441 15.8445C188.504 15.5057 187.697 14.8817 187.133 14.0602C186.569 13.2387 186.276 12.2608 186.295 11.264C186.295 8.08638 189.012 5.92021 193.255 5.92021C195.548 5.87045 197.782 6.64968 199.547 8.115L197.23 11.6649C196.043 10.8038 194.633 10.3035 193.169 10.2239C192.282 10.2239 191.644 10.6247 191.644 11.1782C191.644 11.7316 191.987 12.1324 193.169 12.3901C194.536 12.7476 195.865 13.2399 197.135 13.8596C199.185 14.8998 199.995 16.2071 199.995 18.1347C199.995 21.3792 197.278 23.7552 192.759 23.7552C190.005 23.7884 187.344 22.756 185.332 20.8734Z" fill="#161616"/>
<path d="M201.98 20.8756C201.98 20.4882 202.058 20.1047 202.21 19.7484C202.362 19.392 202.585 19.0703 202.865 18.8027C203.145 18.535 203.476 18.327 203.838 18.1912C204.201 18.0555 204.587 17.9948 204.974 18.0129C205.743 18.0129 206.48 18.3185 207.023 18.8626C207.567 19.4066 207.872 20.1445 207.872 20.9139C207.872 21.6832 207.567 22.4211 207.023 22.9651C206.48 23.5091 205.743 23.8148 204.974 23.8148C204.584 23.8237 204.195 23.7542 203.831 23.6104C203.468 23.4666 203.137 23.2513 202.858 22.9774C202.579 22.7034 202.357 22.3763 202.207 22.0153C202.056 21.6544 201.979 21.2669 201.98 20.8756Z" fill="#161616"/>
<path d="M54.9766 41.3235V32.6328H56.2957L59.3776 38.3157L62.4471 32.6328H63.7414V41.3235H62.3112V35.4681L59.8213 40.0044H58.8967L56.4064 35.4927V41.3235H54.9766Z" fill="#161616"/>
<path d="M67.5156 41.3235L71.4481 32.6328H72.7425L76.6746 41.3235H75.0721L74.2095 39.3142H69.9687L69.1181 41.3235H67.5156ZM72.0765 34.3463L70.5112 38.0568H73.667L72.1013 34.3463H72.0765Z" fill="#161616"/>
<path d="M80.3906 41.3235V32.6328H84.1629C85.1162 32.6328 85.8517 32.8629 86.3693 33.3231C86.887 33.7751 87.146 34.412 87.146 35.2338C87.146 35.8831 86.9773 36.4214 86.6408 36.8487C86.3038 37.2678 85.8189 37.5514 85.1862 37.6993C85.6051 37.8308 85.9504 38.1472 86.2214 38.6485L87.6761 41.3235H85.938L84.4339 38.5499C84.286 38.2787 84.1093 38.0938 83.9038 37.9952C83.7068 37.8965 83.4517 37.8472 83.1395 37.8472H81.9687V41.3235H80.3906ZM81.9687 36.6761H83.8914C85.0423 36.6761 85.6175 36.2077 85.6175 35.2708C85.6175 34.3422 85.0423 33.8778 83.8914 33.8778H81.9687V36.6761Z" fill="#161616"/>
<path d="M91.6094 41.3235V32.6328H93.1871V36.4789H93.2119L97.0457 32.6328H98.9688L94.7404 36.8117L99.1782 41.3235H97.2303L93.2119 37.3048H93.1871V41.3235H91.6094Z" fill="#161616"/>
<path d="M102.598 41.3235V32.6328H108.379V33.8902H104.114V36.2816H108.108V37.539H104.114V40.066H108.379V41.3235H102.598Z" fill="#161616"/>
<path d="M114.718 41.3235V33.9518H111.734V32.6328H119.279V33.9518H116.296V41.3235H114.718Z" fill="#161616"/>
<path d="M123.047 41.3235V32.6328H124.625V41.3235H123.047Z" fill="#161616"/>
<path d="M129.332 41.3235V32.6328H130.516L135.188 38.6978V32.6328H136.654V41.3235H135.483L130.799 35.2338V41.3235H129.332Z" fill="#161616"/>
<path d="M145.47 41.4527C144.509 41.4527 143.695 41.2721 143.029 40.9103C142.372 40.5489 141.87 40.0353 141.525 39.3695C141.18 38.7039 141.008 37.9149 141.008 37.0027C141.008 36.0823 141.184 35.2893 141.538 34.6236C141.891 33.9497 142.401 33.4319 143.066 33.0703C143.732 32.7005 144.529 32.5156 145.458 32.5156C146.066 32.5156 146.637 32.606 147.171 32.7868C147.706 32.9594 148.149 33.2018 148.503 33.5141L147.973 34.7468C147.587 34.4428 147.192 34.225 146.789 34.0935C146.387 33.962 145.943 33.8962 145.458 33.8962C144.537 33.8962 143.839 34.1633 143.362 34.6975C142.894 35.2317 142.659 36.0001 142.659 37.0027C142.659 38.0136 142.902 38.782 143.387 39.3079C143.872 39.8339 144.591 40.0969 145.544 40.0969C145.815 40.0969 146.091 40.0765 146.37 40.0353C146.658 39.9857 146.941 39.9161 147.221 39.8257V37.804H145.224V36.6329H148.539V40.812C148.137 41.009 147.66 41.1653 147.11 41.2804C146.559 41.3952 146.012 41.4527 145.47 41.4527Z" fill="#161616"/>
</svg>

<svg width="208" height="42" fill="none" xmlns="http://www.w3.org/2000/svg"><path d="M0 19.801l2.86-4.18a9.216 9.216 0 006.407 2.863c1.287 0 2.536-.515 2.536-1.65 0-.793-.734-1.308-1.83-1.737a50.602 50.602 0 01-4.882-1.832 6.227 6.227 0 01-3.728-5.87c0-3.969 3.452-6.965 8.4-6.965a12.53 12.53 0 018.027 2.863l-2.64 4.341a9.08 9.08 0 00-5.282-1.908c-1.65 0-2.412.706-2.412 1.47 0 .954.953 1.374 1.792 1.679 1.201.458 3.06 1.069 4.586 1.708 2.374 1.012 4.3 2.691 4.3 5.926 0 4.122-3.423 7.214-8.943 7.214A12.06 12.06 0 010 19.801zm20.469-3.844V6.414h5.358v9.543a2.713 2.713 0 002.703 2.87 2.705 2.705 0 002.545-1.785c.126-.347.18-.717.158-1.085V6.414h5.405v9.543c0 5.038-3.117 7.786-8.123 7.786-5.005 0-8.046-2.748-8.046-7.786zM58.3 14.859c0 4.885-3.423 8.884-8.21 8.884a6.852 6.852 0 01-4.766-1.832v8.34h-5.406V6.45h5.32v1.556a6.676 6.676 0 014.853-1.985c4.814 0 8.209 3.941 8.209 8.837zm-5.492.057a3.812 3.812 0 10-7.627 0 3.819 3.819 0 003.813 3.817 3.812 3.812 0 003.814-3.817zm24.823 1.709H65.599a3.99 3.99 0 004.129 2.662 9.907 9.907 0 005.09-1.556l2.108 3.636a12.823 12.823 0 01-7.446 2.319c-6.293 0-9.315-4.18-9.315-8.798a8.604 8.604 0 012.56-6.412 8.576 8.576 0 016.45-2.453c4.853 0 8.638 3.092 8.638 8.435-.003.726-.064 1.45-.182 2.167zm-12.089-3.703h7.141a3.455 3.455 0 00-3.518-2.596 3.611 3.611 0 00-3.623 2.596zM80.41 6.45h5.158v2.08a5.172 5.172 0 014.49-2.538 5.307 5.307 0 012.098.458l-.42 5.134a7.06 7.06 0 00-2.23-.4c-2.107 0-3.719 1.221-3.719 4.857v7.271H80.41V6.45zM94.023 0h5.254v8.741a5.961 5.961 0 015.282-2.748c3.327 0 6.492 2.233 6.492 6.966v10.354h-5.396V14.39c0-2.233-1.135-3.483-2.965-3.483a3.284 3.284 0 00-3.144 2.248 3.3 3.3 0 00-.155 1.36v8.797h-5.368V0zm36.94 16.625h-12.022a3.969 3.969 0 004.119 2.662 9.912 9.912 0 005.091-1.556l2.107 3.636a12.826 12.826 0 01-7.446 2.319c-6.293 0-9.315-4.18-9.315-8.798a8.587 8.587 0 019.009-8.865c4.853 0 8.638 3.092 8.638 8.435a13.57 13.57 0 01-.181 2.167zm-12.089-3.703h7.141a3.452 3.452 0 00-3.509-2.596 3.63 3.63 0 00-3.632 2.596zm14.868-6.472h5.158v2.08a5.17 5.17 0 014.49-2.538 5.35 5.35 0 012.107.458l-.429 5.134a7.055 7.055 0 00-2.23-.4c-2.107 0-3.719 1.221-3.719 4.857v7.271h-5.377V6.45zm12.422 8.437a9.192 9.192 0 012.79-6.305 9.178 9.178 0 0115.563 6.305c0 4.915-3.642 8.885-9.191 8.885-5.548 0-9.162-3.97-9.162-8.884zm12.976 0a3.825 3.825 0 00-2.394-3.485 3.808 3.808 0 00-4.136.864 3.819 3.819 0 002.716 6.496 3.816 3.816 0 003.814-3.903v.028zm24.697 1.738h-12.023a3.98 3.98 0 004.119 2.662 9.915 9.915 0 005.1-1.556l2.108 3.636a12.856 12.856 0 01-7.446 2.319c-6.293 0-9.315-4.18-9.315-8.798a8.587 8.587 0 019.01-8.865c4.852 0 8.637 3.092 8.637 8.435-.006.726-.07 1.45-.19 2.167zm-12.089-3.703h7.15a3.455 3.455 0 00-3.518-2.596 3.631 3.631 0 00-3.632 2.596zm13.584 7.951l2.412-3.635a8.024 8.024 0 005.034 2.109c.953 0 1.802-.344 1.802-1.079 0-.334-.181-.64-.953-.954-.772-.315-3.175-1.012-4.186-1.47a4.765 4.765 0 01-2.308-1.784 4.78 4.78 0 01-.838-2.796c0-3.178 2.717-5.344 6.96-5.344a9.527 9.527 0 016.292 2.195l-2.317 3.55a7.62 7.62 0 00-4.061-1.441c-.887 0-1.525.4-1.525.954 0 .554.343.954 1.525 1.212 1.367.358 2.696.85 3.966 1.47 2.05 1.04 2.86 2.347 2.86 4.275 0 3.244-2.717 5.62-7.236 5.62a10.682 10.682 0 01-7.427-2.882zm16.648.003a2.873 2.873 0 01.885-2.073 2.864 2.864 0 012.109-.79 2.9 2.9 0 010 5.802 2.93 2.93 0 01-2.994-2.94zM54.977 41.324v-8.691h1.319l3.082 5.683 3.07-5.683h1.293v8.69h-1.43v-5.855l-2.49 4.536h-.924l-2.49-4.511v5.83h-1.43zm12.539 0l3.932-8.691h1.295l3.932 8.69h-1.603l-.862-2.009h-4.241l-.85 2.01h-1.603zm4.56-6.978l-1.565 3.71h3.156l-1.566-3.71h-.025zm8.314 6.978v-8.691h3.773c.953 0 1.689.23 2.206.69.518.452.777 1.089.777 1.91 0 .65-.169 1.188-.505 1.616-.337.419-.822.702-1.455.85.42.132.764.448 1.035.95l1.455 2.675h-1.738l-1.504-2.774c-.148-.271-.325-.456-.53-.555-.197-.098-.452-.148-.764-.148h-1.171v3.477H80.39zm1.579-4.648h1.922c1.151 0 1.727-.468 1.727-1.405 0-.929-.576-1.393-1.727-1.393H81.97v2.798zm9.641 4.648v-8.691h1.577v3.846h.025l3.834-3.846h1.923l-4.229 4.179 4.438 4.512H97.23l-4.018-4.02h-.025v4.02H91.61zm10.988 0v-8.691h5.781v1.257h-4.265v2.392h3.994v1.257h-3.994v2.527h4.265v1.258h-5.781zm12.12 0v-7.372h-2.984v-1.32h7.545v1.32h-2.983v7.372h-1.578zm8.329 0v-8.691h1.578v8.69h-1.578zm6.285 0v-8.691h1.184l4.672 6.065v-6.065h1.466v8.69h-1.171l-4.684-6.09v6.09h-1.467zm16.138.129c-.961 0-1.775-.18-2.441-.543a3.627 3.627 0 01-1.504-1.54c-.345-.666-.517-1.455-.517-2.367 0-.92.176-1.714.53-2.38a3.668 3.668 0 011.528-1.553c.666-.37 1.463-.554 2.392-.554.608 0 1.179.09 1.713.27.535.173.978.416 1.332.728l-.53 1.233a3.852 3.852 0 00-1.184-.654 4.264 4.264 0 00-1.331-.197c-.921 0-1.619.267-2.096.801-.468.535-.703 1.303-.703 2.306 0 1.01.243 1.779.728 2.305.485.526 1.204.789 2.157.789.271 0 .547-.02.826-.062.288-.05.571-.119.851-.21v-2.021h-1.997v-1.171h3.315v4.179a6.086 6.086 0 01-1.429.468 8.026 8.026 0 01-1.64.173z" fill="#161616"/></svg>
